X: 1777
T: Apus Caffer In Dublin
R: jig
M: 6/8
K: Gmajor
M:5/8
|:Bc/B/A BG|fae gf|edB BA|Bdc BA|Bc/B/A BG|fae gf|edB BA|BcA G2:|
K:D
|:fg/f/e fd|cde fd|Bda Ag|fge ed|fg/f/e fd|cde fd|Bda Ag|fge da:|

